Origami/22x22/apps/pdfchain.svg

<svg width="22" height="22" version="1" xmlns="http://www.w3.org/2000/svg">
 <rect transform="matrix(0,-1,-1,0,0,0)" x="-15.5" y="-15" width="14" height="14" rx="2" ry="2" style="opacity:.2"/>
 <rect transform="matrix(0,-1,-1,0,0,0)" x="-15" y="-15" width="14" height="14" rx="2" ry="2" style="fill:#2e72be"/>
 <rect transform="matrix(0,-1,-1,0,0,0)" x="-18.5" y="-18" width="14" height="14" rx="2" ry="2" style="opacity:.2"/>
 <rect transform="matrix(0,-1,-1,0,0,0)" x="-18" y="-18" width="14" height="14" rx="2" ry="2" style="fill:#459df7"/>
 <rect transform="matrix(0,-1,-1,0,0,0)" x="-21.5" y="-21" width="14" height="14" rx="2" ry="2" style="opacity:.2"/>
 <rect transform="matrix(0,-1,-1,0,0,0)" x="-21" y="-21" width="14" height="14" rx="2" ry="2" style="fill:#90c2fa"/>
 <path d="m3 1c-1.108 0-2 0.892-2 2v0.5c0-1.108 0.892-2 2-2h10c1.108 0 2 0.892 2 2v-0.5c0-1.108-0.892-2-2-2h-10z" style="fill:#ffffff;opacity:.1"/>
 <path d="m6 4c-1.108 0-2 0.892-2 2v0.5c0-1.108 0.892-2 2-2h10c1.108 0 2 0.892 2 2v-0.5c0-1.108-0.892-2-2-2h-10z" style="fill:#ffffff;opacity:.1"/>
 <path d="m9 7c-1.108 0-2 0.892-2 2v0.5c0-1.108 0.892-2 2-2h10c1.108 0 2 0.892 2 2v-0.5c0-1.108-0.892-2-2-2h-10z" style="fill:#ffffff;opacity:.1"/>
 <path d="m 14.042969,13 a 3.890242,2.4730582 34.437874 0 0 -1.84082,0.947266 3.890242,2.4730582 34.437874 0 0 2.125976,4.240234 3.890242,2.4730582 34.437874 0 0 4.469726,-0.134766 A 3.890242,2.4730582 34.437874 0 0 16.671875,13.8125 3.890242,2.4730582 34.437874 0 0 14.042969,13 Z" style="fill:#f34e51"/>
 <path d="m14.713867 14.501386a2.6324099 1.8222014 25.717096 0 1 1.162109 0.1875 2.6324099 1.8222014 25.717096 0 1 2.095703 2.658202 2.6324099 1.8222014 25.717096 0 1 -2.847656 0.964844 2.6324099 1.8222014 25.717096 0 1 -2.095702 -2.658203 2.6324099 1.8222014 25.717096 0 1 1.685546 -1.152344z" style="opacity:.2"/>
 <path d="m14.713867 14.000977a2.6324099 1.8222014 25.717096 0 1 1.162109 0.1875 2.6324099 1.8222014 25.717096 0 1 2.095703 2.658202 2.6324099 1.8222014 25.717096 0 1 -2.847656 0.964844 2.6324099 1.8222014 25.717096 0 1 -2.095702 -2.658203 2.6324099 1.8222014 25.717096 0 1 1.685546 -1.152343z" style="fill:#ffffff"/>
 <path d="m9.5 11.999533 5 4" style="fill:none;opacity:.2;stroke-linecap:round;stroke-linejoin:round;stroke:#000000"/>
 <path d="m9.5 11.5 5 4" style="fill:none;stroke-linecap:round;stroke-linejoin:round;stroke:#f34e51"/>
</svg>

<svg xmlns="http://www.w3.org/2000/svg" width="22" height="22" version="1">
 <rect style="opacity:0.2" width="14" height="14" x="-15.5" y="-15" rx="2" ry="2" transform="matrix(0,-1,-1,0,0,0)"/>
 <rect style="fill:#2e72be" width="14" height="14" x="-15" y="-15" rx="2" ry="2" transform="matrix(0,-1,-1,0,0,0)"/>
 <rect style="opacity:0.2" width="14" height="14" x="-18.5" y="-18" rx="2" ry="2" transform="matrix(0,-1,-1,0,0,0)"/>
 <rect style="fill:#459df7" width="14" height="14" x="-18" y="-18" rx="2" ry="2" transform="matrix(0,-1,-1,0,0,0)"/>
 <rect style="opacity:0.2" width="14" height="14" x="-21.5" y="-21" rx="2" ry="2" transform="matrix(0,-1,-1,0,0,0)"/>
 <rect style="fill:#90c2fa" width="14" height="14" x="-21" y="-21" rx="2" ry="2" transform="matrix(0,-1,-1,0,0,0)"/>
 <path style="opacity:0.1;fill:#ffffff" d="M 3,1 C 1.892,1 1,1.892 1,3 l 0,0.5 c 0,-1.108 0.892,-2 2,-2 l 10,0 c 1.108,0 2,0.892 2,2 L 15,3 C 15,1.892 14.108,1 13,1 L 3,1 Z"/>
 <path style="opacity:0.1;fill:#ffffff" d="M 6,4 C 4.892,4 4,4.892 4,6 l 0,0.5 c 0,-1.108 0.892,-2 2,-2 l 10,0 c 1.108,0 2,0.892 2,2 L 18,6 C 18,4.892 17.108,4 16,4 L 6,4 Z"/>
 <path style="opacity:0.1;fill:#ffffff" d="M 9,7 C 7.892,7 7,7.892 7,9 l 0,0.5 c 0,-1.108 0.892,-2 2,-2 l 10,0 c 1.108,0 2,0.892 2,2 L 21,9 C 21,7.892 20.108,7 19,7 L 9,7 Z"/>
 <path style="fill:#f34e51" d="m 14.042969,13 a 3.890242,2.4730582 34.437874 0 0 -1.84082,0.947266 3.890242,2.4730582 34.437874 0 0 2.125976,4.240234 3.890242,2.4730582 34.437874 0 0 4.469726,-0.134766 A 3.890242,2.4730582 34.437874 0 0 16.671875,13.8125 3.890242,2.4730582 34.437874 0 0 14.042969,13 Z"/>
 <path style="opacity:0.2" d="m 14.713867,14.501386 a 2.6324099,1.8222014 25.717096 0 1 1.162109,0.1875 2.6324099,1.8222014 25.717096 0 1 2.095703,2.658202 2.6324099,1.8222014 25.717096 0 1 -2.847656,0.964844 2.6324099,1.8222014 25.717096 0 1 -2.095702,-2.658203 2.6324099,1.8222014 25.717096 0 1 1.685546,-1.152344 z"/>
 <path style="fill:#ffffff" d="m 14.713867,14.000977 a 2.6324099,1.8222014 25.717096 0 1 1.162109,0.1875 2.6324099,1.8222014 25.717096 0 1 2.095703,2.658202 2.6324099,1.8222014 25.717096 0 1 -2.847656,0.964844 2.6324099,1.8222014 25.717096 0 1 -2.095702,-2.658203 2.6324099,1.8222014 25.717096 0 1 1.685546,-1.152343 z"/>
 <path style="opacity:0.2;fill:none;stroke:#000000;stroke-linecap:round;stroke-linejoin:round" d="m 9.5,11.999533 5,4"/>
 <path style="fill:none;stroke:#f34e51;stroke-linecap:round;stroke-linejoin:round" d="m 9.5,11.5 5,4"/>
</svg>
